16x16/panel/copy-update.svg

<svg height="16" width="16" xmlns="http://www.w3.org/2000/svg"><path d="m3.37 3-3.37 3.004 3.5-.504 1.5 8 3-1.5 8 2-2.525-6.313-1.686-1.177-4.422 3.49-2.736-6.521zm9.224.115-1.631 1.915 1.668.975 1.088-2.131a2.5 2.5 0 0 1 -1.125-.758zm-3.33 1.885-2.727 1.004 1.041 2.525 3.369-2.525z" fill="#bebebe"/><circle cx="14.5" cy="1.5" fill="#5294e2" r="1.5"/></svg>

<svg xmlns="http://www.w3.org/2000/svg" width="16" height="16"><path d="M3.37 3L0 6.004 3.5 5.5l1.5 8L8 12l8 2-2.525-6.313-1.686-1.177L7.367 10 4.631 3.479zm9.224.115L10.963 5.03l1.668.975 1.088-2.131a2.5 2.5 0 0 1-1.125-.758zM9.264 5L6.537 6.004l1.041 2.525 3.369-2.525z" fill="currentColor" color="#bebebe"/><circle cx="14.5" cy="1.5" r="1.5" fill="currentColor" color="#5294e2"/></svg>
